!!!!SEGMENT: WaltzEm-1b-SCH.krn
!!!COM: Chopin, Fryderyk
!!!PTL: VALSE | (Mi - min.) | POUR LE | PIANO
!!!OTL: Valse
!!!OPS: [op. posth.]
!!!PTL: Mainz
!!!PPR: Schott
!!!PPP: Leipzig
!!!NIFC-rismID: 1001035524
!!!NIFC-shelfmark: PL-Wbfc 2067/n
**kern	**fing	**kern	**fing	**dynam
*part1	*	*part1	*	*part1
*	*	*I"PIANO.	*	*
*>[A,B,B1,B,B2,C]	*	*>[A,B,B1,B,B2,C]	*	*
*staff2	*	*staff1	*	*
*clefF4	*	*clefG2	*	*
*k[f#]	*	*k[f#]	*	*
*M3/4	*	*M3/4	*	*
*>A	*	*>A	*	*>A
4rCC	.	4BB<	.	p
=1	=1	=1	=1	=1
2.BB\ 2.EE\	.	(>8D#X<L>	.	.
.	.	8E<	.	.
.	.	8G<	.	.
.	.	8e<	.	.
.	.	8B<	.	.
.	.	8G<J	.	.
=2	=2	=2	=2	=2
!	!	!LO:TX:a:t=P:problem:mixed beam 	!	!
2.BB\ 2.EE\	.	8F#</L	.	.
.	.	8G</	.	.
.	.	8B</	.	.
.	.	8g\	.	.
.	.	8e\	.	.
.	.	8B\J	.	.
=3	=3	=3	=3	=3
*ped	*	*	*	*
2.G:\ 2.BB:\ 2.EE:\	.	8A#XL>	.	.
.	.	8B	.	.
.	.	8e	.	.
!	!	!LO:TX:B:b:i:t=cres-cen-do:dur=17e:ext=ud:problem:text with extention lines	!	!
.	.	8b	.	.
.	.	8g	.	.
.	.	8eJ)	.	.
*Xped	*	*	*	*
.	.	.	.	.
=4	=4	=4	=4	=4
2.G:\ 2.E:\ 2.BB:\ 2.EE:\	.	(>8d#XL<	.	.
.	.	8e	.	.
.	.	8g	.	.
.	.	8ee	.	.
.	.	8b	.	.
.	.	8gJ)	.	.
=5	=5	=5	=5	=5
2.G:\ 2.E:\ 2.BB:\ 2.EE:\	.	(>8f#L<	.	.
.	.	8g	.	.
.	.	8b	.	.
.	.	8gg	.	.
.	.	8ee	.	.
.	.	8bJ	.	.
!!LO:LB:g=original
=6	=6	=6	=6	=6
2.G:\ 2.E:\ 2.BB:\ 2.EE:\	.	8a#XL	.	.
.	.	8b	.	.
.	.	8ee	.	.
.	.	8bb	.	.
.	.	8gg	.	.
.	.	8eeJ	.	.
=7	=7	=7	=7	=7
[>2.G:\ [>2.E:\ [<2.BB:\ [<2.EE:\	.	8dd#XL	.	f
.	.	8ee	.	.
.	.	8gg	.	.
.	.	8bb	.	.
.	.	8eee	.	.
.	.	16raa	.	.
*	*	*8va	*	*
.	.	16eeeeJk	.	.
=8	=8	=8	=8	=8
4G\] 4E\] 4BB\] 4EE\]	.	4bbb 4ggg)	.	.
*	*	*X8va	*	*
4r	.	4r	.	.
4r	.	4r	.	.
=9	=9	=9	=9	=9
*ped	*	*	*	*
!	!	!LO:TX:a:i:t=grazioso.	!	!
4D#X'>	.	4b'>	.	p
(>4a 4f#	.	8b'>L	.	.
.	.	8b'>J	.	.
*Xped	*	*	*	*
4B)	.	4b'>	.	.
=10	=10	=10	=10	=10
*ped	*	*	*	*
4E'>	.	(>8a#XL	.	.
.	.	8b	.	.
(>4g 4e	.	8ee	.	.
.	.	8ggJ)	.	.
*Xped	*	*	*	*
4B)	.	4bb'>	.	.
=11	=11	=11	=11	=11
*	*	*8va	*	*
.	.	(<16qqccc/LL	.	.
.	.	16qqddd/JJ	.	.
*ped	*	*	*	*
4F#'>	.	(>8cccL)	.	.
.	.	8bb	.	.
(>4a 4d#X	.	8aa#X	.	.
.	.	8bb	.	.
*Xped	*	*	*	*
4B)	.	8fff# 8ddd#X	.	.
.	.	8bbbJ)	.	.
=12	=12	=12	=12	=12
*ped	*	*	*	*
4G'>	.	4ggg 4eee	.	.
*	*	*X8va	*	*
(>4g 4e	.	4r	.	.
*Xped	*	*	*	*
4B)	.	4r	.	.
!!LO:LB:g=original
=13	=13	=13	=13	=13
*	*	*^	*	*
*	*	*	*8va	*	*
.	.	.	(<8qccc/	.	.
*ped	*	*	*	*	*
4A'>	.	4ryy	4bbb)	.	.
(>4f# 4e	.	2aaa	8aaaL	.	.
.	.	.	8fff#J	.	.
*Xped	*	*	*	*	*
4c)	.	.	4ccc\	.	.
=14	=14	=14	=14	=14	=14
.	.	.	(<8qbb/	.	.
*ped	*	*	*	*	*
4B'>	.	4ryy	4aaa)	.	.
*clefG2	*	*	*	*	*
(<4b 4g	.	2ggg	8gggL	.	.
.	.	.	8eeeJ	.	.
*Xped	*	*	*	*	*
4e)	.	.	4bb\	.	.
*clefF4	*	*	*	*	*
=15	=15	=15	=15	=15	=15
.	.	.	(<8qaa/	.	.
*ped	*	*	*	*	*
4BB'<	.	4ryy	4ggg'>)	.	.
*clefG2	*	*	*	*	*
(<4a 4f#	.	2fff#	8fff#L	.	.
.	.	.	8ddd#XJ	.	.
*Xped	*	*	*	*	*
4B)	.	.	4aa/	.	.
*	*	*	*X8va	*	*
*	*	*v	*v	*	*
=16	=16	=16	=16	=16
4g 4e	.	(>8eeeL 8gg	.	.
.	.	8ccc	.	.
4r	.	8bb	.	.
.	.	8gg	.	.
4r	.	8ee	.	.
.	.	8ccJ)	.	.
*clefF4	*	*	*	*
=17	=17	=17	=17	=17
*ped	*	*	*	*
4D#X'>	.	4b'>	.	.
(>4a 4f#	.	8b'>L	.	.
.	.	8b'>J	.	.
*Xped	*	*	*	*
4B)	.	4b'>	.	.
=18	=18	=18	=18	=18
*ped	*	*	*	*
4E'>	.	(>8a#XL	.	.
.	.	8b	.	.
(>4g 4e	.	8ee	.	.
.	.	8ggJ	.	.
*Xped	*	*	*	*
4B)	.	4bb)	.	.
!!LO:LB:g=original
=19	=19	=19	=19	=19
*	*	*8va	*	*
.	.	(<16qqccc/LL	.	.
.	.	16qqddd/JJ	.	.
*ped	*	*	*	*
4F#'>	.	(>8cccL)	.	.
.	.	8bb	.	.
(>4a 4d#X	.	8aa#X	.	.
.	.	8bb	.	.
*Xped	*	*	*	*
4B)	.	8fff# 8ddd#X	.	.
.	.	8bbbJ)	.	.
=20	=20	=20	=20	=20
*ped	*	*	*	*
4G'>	.	4ggg 4eee	.	.
(>4g 4e	.	4r	.	.
*Xped	*	*	*	*
4B)	.	4bb\	.	.
=21	=21	=21	=21	=21
*	*	*^	*	*
.	.	.	(<8qccc/	.	.
*ped	*	*	*	*	*
4A'>	.	4ryy	4bbb)	.	.
(>4f# 4e	.	2aaa/	8aaaL	.	.
.	.	.	8fff#J	.	.
*Xped	*	*	*	*	*
4c)	.	.	4ccc	.	.
=22	=22	=22	=22	=22	=22
.	.	.	(<8qbb/	.	.
*ped	*	*	*	*	*
4B'>	.	4ryy	4aaa)	.	.
*clefG2	*	*	*	*	*
(<4b 4g	.	2ggg/	8gggL	.	.
.	.	.	8eeeJ	.	.
*Xped	*	*	*	*	*
4e)	.	.	4bb	.	.
*clefF4	*	*	*	*	*
=23	=23	=23	=23	=23	=23
.	.	.	(<8qaa/	.	.
*ped	*	*	*	*	*
4BB'<	.	4ryy	4ggg)	.	.
*clefG2	*	*	*	*	*
(<4a 4f#	.	2fff#/	8fff#L	.	.
.	.	.	8ddd#XJ	.	.
*Xped	*	*	*	*	*
4B)	.	.	4aa/	.	.
*	*	*v	*v	*	*
=24	=24	=24	=24	=24
4g 4e	.	4eee\ 4gg\	.	.
*	*	*X8va	*	*
4r	.	4r	.	.
4r	.	4b\	.	.
!LO:CL:ed	!	!	!	!
*clefF4	*	*	*	*
!!LO:PB:g=original
=25!|:	=25!|:	=25!|:	=25!|:	=25!|:
*>B	*	*>B	*	*>B
!	!	!LO:TX:b:i:t=dol.	!	!
4E	.	(>8ccL	.	.
.	.	8ff#X	.	.
4g 4c	.	8aa	.	.
!	!	!LO:TX:b:i:t=e legato.	!	!
.	.	8gg	.	.
4E	.	8ee	.	.
.	.	8ccJ)	.	.
=26	=26	=26	=26	=26
4D#X	.	(>2cc^>	.	.
4f# 4B	.	.	.	.
4D#	.	4b)	.	.
=27	=27	=27	=27	=27
4Dn	.	(>8b-XL	.	.
.	.	8ee	.	.
4fn 4B-X	.	8gg	.	.
.	.	8ffn	.	.
4D	.	8dd	.	.
.	.	8b-J)	.	.
=28	=28	=28	=28	=28
4C#X	.	(>2b-X^>	.	.
4e 4A	.	.	.	.
4C#	.	4a/)	.	.
=29	=29	=29	=29	=29
4Cn	.	(>8aL	.	.
.	.	8dd#X	.	.
4e 4A	.	8ff#	.	.
.	.	8ee	.	.
4C	.	8cc	.	.
.	.	8aJ)	.	.
=30	=30	=30	=30	=30
4BB	.	(<2a^<	.	.
4e 4G	.	.	.	.
4BB	.	4g)	.	.
=31	=31	=31	=31	=31
4BB/	.	(<8f#L	.	.
.	.	8g	.	.
4B 4F#	.	8a	.	.
.	.	8a#X	.	.
4D#X\	.	8b	.	.
.	.	8f#J)	.	.
!!LO:LB:g=original
=32	=32	=32	=32	=32
4E	.	(<2a^</	.	.
4e	.	.	.	.
4B	.	4g)	.	.
=33	=33	=33	=33	=33
*	*	*8va	*	*
*ped	*	*	*	*
4EE'<	.	8ccL<	.	f
.	.	8gg	.	.
(>4c	.	8ccc	5	.
.	.	8ccc	1	.
*Xped	*	*	*	*
4G)	.	8ggg	.	.
.	.	8ccccJ	.	.
=34	=34	=34	=34	=34
*ped	*	*	*	*
4DD#X'<	.	8bbbL	4	.
.	.	8fff#	2	.
(>4B	.	8bb	1	.
.	.	8bb	5	.
*Xped	*	*	*	*
4F#)	.	8ff#	.	.
.	.	8bJ	.	.
=35	=35	=35	=35	=35
*ped	*	*	*	*
4DDn'<	.	8b-XL<	.	.
.	.	8ffn	.	.
(>4B-X	.	8bb-X	4	.
.	.	8bb-	1	.
*Xped	*	*	*	*
4Fn)	.	8fffn	.	.
.	.	8bbb-XJ	.	.
=36	=36	=36	=36	=36
*ped	*	*	*	*
4CC#X'<	.	8aaaL<	4	.
.	.	8eee	2	.
(>4A	.	8aa	1	.
.	.	8aa	5	.
*Xped	*	*	*	*
4E)	.	8ee	.	.
.	.	8aJ	.	.
=37	=37	=37	=37	=37
*ped	*	*	*	*
4CCn'<	.	8aL<	.	.
.	.	8ee	.	.
(>4A	.	8aa	.	.
.	.	8aa	.	.
*Xped	*	*	*	*
4E)	.	8eee	.	.
.	.	8aaaJ	.	.
=38	=38	=38	=38	=38
*ped	*	*	*	*
4BBB'<	.	8gggL<	4	.
.	.	8eee	2	.
(>4G	.	8gg	1	.
.	.	8gg	5	.
*Xped	*	*	*	*
4E)	.	8ee	.	.
.	.	8gJ	.	.
*	*	*X8va	*	*
!!LO:LB:g=original
=39	=39	=39	=39	=39
*^	*	*	*	*
*ped	*	*	*	*	*
4BB'</	4ryy	.	8ff#L	4	.
.	.	.	8f#	.	.
(>4e	2F#	.	8b	.	.
.	.	.	8ff#J	4	.
*Xped	*	*	*	*	*
4d#X)	.	.	8gg\L 8a\	.	.
.	.	.	8ff#J	.	.
*v	*v	*	*	*	*
=40	=40	=40	=40	=40
4e\ 4E\	.	4ee 4g	.	.
4r	.	(>8ee-XL	.	>
.	.	8dd	.	.
4r	.	8cc#X	.	.
.	.	8ccnJ)	.	]
=41	=41	=41	=41	=41
*ped	*	*	*	*
!	!	!LO:TX:a:i:t=dol.	!	!
4D#X'>	.	4b'>	.	.
(>4a 4f#	.	8b'>L	.	.
.	.	8b'>J	.	.
*Xped	*	*	*	*
4B)	.	4b'>	.	.
=42	=42	=42	=42	=42
*ped	*	*	*	*
4E'>	.	(>8a#XL	.	.
.	.	8b	.	.
(>4g 4e	.	8ee	.	.
.	.	8ggJ)	.	.
*Xped	*	*	*	*
4B)	.	4bb'>	.	.
=43	=43	=43	=43	=43
*	*	*8va	*	*
.	.	(<16qqccc/LL	.	.
.	.	16qqddd/JJ	.	.
*ped	*	*	*	*
4F#'>	.	8cccL)	.	.
.	.	8bb	.	.
(>4a 4d#X	.	8aa#X	.	.
.	.	8bb	.	.
*Xped	*	*	*	*
4B)	.	8fff# 8ddd#X	.	.
.	.	8bbbJ	.	.
=44	=44	=44	=44	=44
*ped	*	*	*	*
4G'>	.	4ggg 4eee	.	.
(>4g 4e	.	4r	.	.
*Xped	*	*	*	*
4B)	.	4bb\	.	.
!!LO:LB:g=original
=45	=45	=45	=45	=45
*	*	*^	*	*
.	.	.	(<8qccc/	.	.
*ped	*	*	*	*	*
4A'>	.	4ryy	4bbb)	.	.
(>4f# 4e	.	2aaa	8aaaL	.	.
.	.	.	8fff#J	.	.
*Xped	*	*	*	*	*
4c)	.	.	4ccc\	.	.
=46	=46	=46	=46	=46	=46
.	.	.	(<8qbb/	.	.
*ped	*	*	*	*	*
4B'>	.	4ryy	4aaa)	.	.
*clefG2	*	*	*	*	*
(<4b 4g	.	2ggg	8gggL	.	.
.	.	.	8eeeJ	.	.
*Xped	*	*	*	*	*
4e)	.	.	4bb\	.	.
*clefF4	*	*	*	*	*
=47	=47	=47	=47	=47	=47
.	.	.	(<8qaa/	.	.
*ped	*	*	*	*	*
4BB'<	.	4ryy	4ggg)	.	.
*clefG2	*	*	*	*	*
(<4a 4f#	.	2fff#	8fff#L	.	.
.	.	.	8ddd#XJ	.	.
*Xped	*	*	*	*	*
4B)	.	.	4aa/	.	.
*	*	*	*X8va	*	*
*	*	*v	*v	*	*
=48	=48	=48	=48	=48
4g/ 4e/	.	(>8eeeL 8gg	.	.
.	.	8ccc	.	.
4r	.	8bb	.	.
.	.	8gg	.	.
4r	.	8ee	.	.
.	.	8ccJ)	.	.
*clefF4	*	*	*	*
=49	=49	=49	=49	=49
*ped	*	*	*	*
4D#X'>	.	4b'>	.	.
(>4a 4f#	.	8b'>L	.	.
.	.	8b'>J	.	.
*Xped	*	*	*	*
4B)	.	4b'>	.	.
=50	=50	=50	=50	=50
*ped	*	*	*	*
4E'>	.	(>8a#XL	.	.
.	.	8b	.	.
(>4g 4e	.	8ee	.	.
.	.	8ggJ)	.	.
*Xped	*	*	*	*
4B)	.	4bb	.	.
!!LO:LB:g=original
=51	=51	=51	=51	=51
*	*	*8va	*	*
.	.	(<16qqccc/LL	.	.
.	.	16qqddd/JJ	.	.
*ped	*	*	*	*
4F#'>	.	8cccL)	.	.
.	.	8bb	.	.
(>4a 4d#X	.	8aa#X	.	.
.	.	8bb	.	.
*Xped	*	*	*	*
4B)	.	8fff# 8ddd#X	.	.
.	.	8bbbJ	.	.
=52	=52	=52	=52	=52
*ped	*	*	*	*
4G'>	.	4ggg 4eee	.	.
(>4g 4e	.	4r	.	.
*Xped	*	*	*	*
4B)	.	4bb\	.	.
=53	=53	=53	=53	=53
*	*	*^	*	*
.	.	.	(<8qccc/	.	.
*ped	*	*	*	*	*
4A'>	.	4ryy	4bbb)	.	.
(>4f# 4e	.	2aaa/	8aaaL	.	.
.	.	.	8fff#J	.	.
*Xped	*	*	*	*	*
4c)	.	.	4ccc	.	.
=54	=54	=54	=54	=54	=54
.	.	.	(<8qbb/	.	.
*ped	*	*	*	*	*
4B'>	.	4ryy	4aaa)	.	.
*clefG2	*	*	*	*	*
(<4b 4g	.	2ggg/	8gggL	.	.
.	.	.	8eeeJ	.	.
*Xped	*	*	*	*	*
4e)	.	.	4bb\	.	.
*clefF4	*	*	*	*	*
=55	=55	=55	=55	=55	=55
.	.	.	(<8qaa/	.	.
*ped	*	*	*	*	*
4BB'<	.	4ryy	4ggg)	.	.
*clefG2	*	*	*	*	*
(<4a 4f#	.	2fff#/	8fff#L	.	.
.	.	.	8ddd#XJ	.	.
*Xped	*	*	*	*	*
4B)	.	.	4aa/	.	.
*	*	*v	*v	*	*
=56	=56	=56	=56	=56
!!!LO:TX:a:B:t=1|o.
*>B1	*	*>B1	*	*>B1
*	*	*	*^	*
4g'< 4e'<	.	4eee 4gg	.	.	.
*	*	*X8va	*	*	*
4E'<	.	4r	.	.	.
4r	.	8a#X\L	.	2	.
.	.	8bJ	.	3	.
*	*	*	*v	*v	*
=57:|!	=57:|!	=57:|!	=57:|!	=57:|!
!!!LO:TX:a:B:t=2|o.
*>B2	*	*>B2	*	*>B2
*	*	*8va	*	*
*clefG2	*	*	*	*
4g'< 4e'<	.	4eee 4gg	.	.
*	*	*X8va	*	*
4E'<	.	4r	.	.
4r	.	4r	.	.
!LO:CL:ed	!	!	!	!
*clefF4	*	*	*	*
*Xkcancel	*	*Xkcancel	*	*
!!LO:PB:g=original
==58||	==58||	==58||	==58||	==58||
*k[f#c#g#d#]	*	*k[f#c#g#d#]	*	*
*>C	*	*>C	*	*>C
.	.	(<16qqd#/LL	.	.
.	.	16qqf#/JJ	.	.
!	!	!LO:TX:a:i:t=dol.	!	!
*ped	*	*	*	*
4BB'<	.	(>2.cc#)	.	p
*clefG2	*	*	*	*
(<4a	.	.	.	.
*Xped	*	*	*	*
4B)	.	.	.	.
*clefF4	*	*	*	*
=59	=59	=59	=59	=59
*ped	*	*	*	*
4BB'<	.	2.b	.	.
*clefG2	*	*	*	*
(<4a	.	.	.	.
*Xped	*	*	*	*
4B)	.	.	.	.
=60	=60	=60	=60	=60
*ped	*	*	*	*
4E'<	.	8cc#L	.	<
.	.	8dd#	.	.
(<4g#	.	8ee	.	.
.	.	8ff#	.	.
4B)	.	8gg#	.	.
.	.	8aaJ	.	[
=61	=61	=61	=61	=61
4G#'<	.	(>2ccc#^<	.	>
(<4b/	.	.	.	.
*Xped	*	*	*	*
4e)	.	4bb))	.	.
.	.	.	.	]
*clefF4	*	*	*	*
=62	=62	=62	=62	=62
.	.	(<8qb/	.	.
*ped	*	*	*	*
4BB'<	.	(>2.gg#)	.	.
*clefG2	*	*	*	*
(<4b/	.	.	.	.
*Xped	*	*	*	*
4B)	.	.	.	.
*clefF4	*	*	*	*
=63	=63	=63	=63	=63
.	.	(<8qa#X/	.	.
*ped	*	*	*	*
4BB'<	.	2.ggn)	.	.
(>4c#	.	.	.	.
*Xped	*	*	*	*
4B)	.	.	.	.
=64	=64	=64	=64	=64
.	.	(<8qan/	.	.
*ped	*	*	*	*
4BB'<	.	8ff#L)	.	.
.	.	8gg#i	.	.
(>4d#	.	8ff#	.	.
.	.	8ee	.	.
4B)	.	8dd#	.	.
.	.	8cc#J)	.	.
!!LO:LB:g=original
=65	=65	=65	=65	=65
.	.	(<8qg#/	.	.
4E'>	.	(>2cc#\)	.	.
(>4e	.	.	.	.
*Xped	*	*	*	*
4B)	.	4b)	.	.
=66	=66	=66	=66	=66
.	.	(<16qqd#/LL	.	.
.	.	16qqf#/JJ	.	.
*ped	*	*	*	*
4BB'<	.	(>2.cc#)	.	.
*clefG2	*	*	*	*
(<4a	.	.	.	.
*Xped	*	*	*	*
4B)	.	.	.	.
*clefF4	*	*	*	*
=67	=67	=67	=67	=67
*ped	*	*	*	*
4BB'<	.	2.b	.	.
*clefG2	*	*	*	*
(<4a	.	.	.	.
*Xped	*	*	*	*
4B)	.	.	.	.
=68	=68	=68	=68	=68
*ped	*	*	*	*
4e'< 4E'<	.	8cc#L	.	<
.	.	8dd#	.	.
(<4g#	.	8ee	.	.
.	.	8ff#	.	.
4B)	.	8gg#	.	.
.	.	8aaJ	.	[
=69	=69	=69	=69	=69
4G#'<	.	(>2ccc#^>	.	>
(<4b/	.	.	.	.
*Xped	*	*	*	*
4e)	.	4bb))	.	.
.	.	.	.	]
*clefF4	*	*	*	*
=70	=70	=70	=70	=70
.	.	(<8qb/	.	.
*ped	*	*	*	*
4BB'<	.	(>2.gg#)	.	.
*clefG2	*	*	*	*
(<4b/	.	.	.	.
*Xped	*	*	*	*
4B)	.	.	.	.
*clefF4	*	*	*	*
=71	=71	=71	=71	=71
.	.	(<8qa#X/	.	.
*ped	*	*	*	*
4BB'<	.	2.ggn)	.	.
(>4e 4c#	.	.	.	.
*Xped	*	*	*	*
4B)	.	.	.	.
!!LO:LB:g=original
=72	=72	=72	=72	=72
*	*	*^	*	*
.	.	16qqff#/LL	N(8qan/	.	.
.	.	16qqgg#/JJ	.	.	.
*ped	*	*	*	*	*
4BB'<	.	4ff#N)	2.ryy	.	.
(>4f# 4d#	.	8ee#XL	.	.	.
.	.	8ff#	.	.	.
*Xped	*	*	*	*	*
4B)	.	8aa	.	.	.
.	.	8gg#J	.	.	.
*	*	*v	*v	*	*
=73	=73	=73	=73	=73
4e 4B 4E	.	8eenL 8g#	.	.
.	.	8ff#	.	.
4r	.	8gg#	.	.
.	.	8dd#	.	.
4r	.	8ee	.	.
.	.	8cc#J)	.	.
=74	=74	=74	=74	=74
.	.	(<16qqd#/LL	.	.
.	.	16qqf#/JJ	.	.
*ped	*	*	*	*
4BB'<	.	(>2.cc#)	.	.
*clefG2	*	*	*	*
(<4a	.	.	.	.
*Xped	*	*	*	*
4B)	.	.	.	.
*clefF4	*	*	*	*
=75	=75	=75	=75	=75
*ped	*	*	*	*
4BB'<	.	2.b	.	.
*clefG2	*	*	*	*
(<4a	.	.	.	.
*Xped	*	*	*	*
4B)	.	.	.	.
=76	=76	=76	=76	=76
*ped	*	*	*	*
4E'<	.	8cc#L	.	<
.	.	8dd#	.	.
(<4g#	.	8ee	.	.
.	.	8ff#	.	.
4B)	.	8gg#	.	.
.	.	8aaJ	.	[
=77	=77	=77	=77	=77
4G#'<	.	(>2ccc#^>	.	>
(<4b/	.	.	.	.
*Xped	*	*	*	*
4e)	.	4bb))	.	.
.	.	.	.	]
*clefF4	*	*	*	*
!!LO:LB:g=original
=78	=78	=78	=78	=78
.	.	(<8qb/	.	.
*ped	*	*	*	*
4BB'<	.	(>2.gg#)	.	.
*clefG2	*	*	*	*
(<4b/	.	.	.	.
*Xped	*	*	*	*
4B)	.	.	.	.
*clefF4	*	*	*	*
=79	=79	=79	=79	=79
.	.	(<8qa#X/	.	.
*ped	*	*	*	*
4BB'<	.	2.ggn)	.	.
(>4c#	.	.	.	.
*Xped	*	*	*	*
4B)	.	.	.	.
=80	=80	=80	=80	=80
*ped	*	*	*	*
4BB'<	.	8ff# 8anL	.	.
.	.	8gg#X	.	.
(>4d#	.	8ff#	.	.
.	.	8ee	.	.
*Xped	*	*	*	*
4B)	.	8dd#	.	.
.	.	8cc#J	.	.
=81	=81	=81	=81	=81
.	.	(<8qg#/	.	.
*ped	*	*	*	*
4E'>	.	2cc#\))	.	.
(>4e	.	.	.	.
*Xped	*	*	*	*
4B)	.	4b	.	.
=82	=82	=82	=82	=82
.	.	(<16qqd#/LL	.	.
.	.	16qqf#/JJ	.	.
*ped	*	*	*	*
4BB'<	.	(>2.cc#)	.	.
*clefG2	*	*	*	*
(<4a	.	.	.	.
4B)	.	.	.	.
*clefF4	*	*	*	*
=83	=83	=83	=83	=83
4BB'<	.	2.b	.	.
*clefG2	*	*	*	*
(<4a	.	.	.	.
*Xped	*	*	*	*
4B)	.	.	.	.
*clefF4	*	*	*	*
=84	=84	=84	=84	=84
*ped	*	*	*	*
4E'>	.	8cc#L	.	.
.	.	8dd#	.	.
(>4g#	.	8ee	.	.
.	.	8ff#	.	.
4B)	.	8gg#	.	.
.	.	8aaJ	.	.
!!LO:LB:g=original
=85	=85	=85	=85	=85
4G#'>	.	2ccc#	.	.
(>4b	.	.	.	.
*Xped	*	*	*	*
4e)	.	4bb)	.	.
=86	=86	=86	=86	=86
.	.	(<8qb/	.	.
*ped	*	*	*	*
4BB'<	.	2.gg#)	.	.
*clefG2	*	*	*	*
(<4b/	.	.	.	.
*Xped	*	*	*	*
4B)	.	.	.	.
*clefF4	*	*	*	*
=87	=87	=87	=87	=87
.	.	(<8qa#X/	.	.
*ped	*	*	*	*
4BB'<	.	2.ggn)	.	.
(>4e 4c#	.	.	.	.
*Xped	*	*	*	*
4B)	.	.	.	.
=88	=88	=88	=88	=88
.	.	(<16qqff#/LL	.	.
.	.	16qqgg#/JJ	.	.
!	!	!LO:S:s=1:note:problem:note-level slur	!	!
*ped	*	*	*	*
4BB'<	.	4ff#) 4an	.	.
(>4f# 4d#	.	(>8ee#XL	.	.
.	.	8ff#	.	.
*Xped	*	*	*	*
4B)	.	8aa	.	.
.	.	8gg#J	.	.
=89	=89	=89	=89	=89
4e 4B 4E	.	4eeni 4g#)	.	.
4r	.	4r	.	.
4r	.	4g#/	.	.
=90	=90	=90	=90	=90
!	!	!	!	!LO:DY:rj
(<8FFF##XL	5	2.g# 2.d# 2.B#X 2.G#	.	ff
8GGG#	4	.	.	.
8BBB#X	2	.	.	.
8DD#	1	.	.	.
8FF##X	5	.	.	.
8GG#J)	.	.	.	.
!!LO:PB:g=original
=91	=91	=91	=91	=91
4G#	.	2g# 2d# 2B#X	.	.
4r	.	.	.	.
4CC#	.	4g# 4e 4c# 4G#	.	.
=92	=92	=92	=92	=92
(<8FFF##XL	.	2.g# 2.d# 2.B#X 2.G#	.	.
8GGG#	.	.	.	.
8BBB#X	.	.	.	.
8DD#	.	.	.	.
8FF##X	.	.	.	.
8GG#J)	.	.	.	.
=93	=93	=93	=93	=93
2G#	.	2g# 2d# 2B#X	.	.
.	.	.	.	.
4C#	.	4g# 4e 4c# 4G#	.	.
=94	=94	=94	=94	=94
4D#	.	2.d# 2.Bni 2.G#<	.	.
(>\8C##XL	.	.	.	.
8D#	.	.	.	.
8E	.	.	.	.
8D#J)	.	.	.	.
=95	=95	=95	=95	=95
(>4.d#^>	.	2.b^>/ 2.g#/	.	.
8BL	.	.	.	.
8G#	.	.	.	.
8D#J)	.	.	.	.
=96	=96	=96	=96	=96
(<4.DD#	.	2.dd#^>\ 2.f##X\ 2.c#\	.	>
8CC#L	.	.	.	.
8BBB	.	.	.	.
8AAA#XJ)	.	.	.	.
.	.	.	.	]
!!LO:LB:g=original
=97	=97	=97	=97	=97
4GGG#	.	4b 4g# 4B	.	.
4r	.	4r	.	.
4r	.	[<4B	.	.
=98	=98	=98	=98	=98
*	*	*^	*	*
*ped	*	*	*	*	*
4BBB'<	.	(>(>2.cc#	[>2.f# [<2.d# 2.B_<	.	p
*clefG2	*	*	*	*	*
(<4a	.	.	.	.	.
4B)	.	.	.	.	.
*clefF4	*	*	*	*	*
=99	=99	=99	=99	=99	=99
4BB'</	.	2.b)	2.f#] 2.d#] 2.B]	.	.
*clefG2	*	*	*	*	*
(<4a	.	.	.	.	.
4B)	.	.	.	.	.
*Xped	*	*	*	*	*
.	.	.	.	.	.
*clefF4	*	*	*	*	*
*	*	*v	*v	*	*
=100	=100	=100	=100	=100
*ped	*	*	*	*
4E'>	.	8cc#L	.	<
.	.	8dd#	.	.
(>4g#	.	8ee	.	.
.	.	8ff#	.	.
4B)	.	8gg#	.	.
.	.	8aaJ)	.	[
=101	=101	=101	=101	=101
4G#'>	.	(>2ccc#	.	.
(>4b	.	.	.	.
*Xped	*	*	*	*
4e)	.	4bb)	.	.
=102	=102	=102	=102	=102
.	.	(<8qb/	.	.
*ped	*	*	*	*
4BB'<	.	2.gg#)	.	.
*clefG2	*	*	*	*
(</4b	.	.	.	.
*Xped	*	*	*	*
4B)	.	.	.	.
*clefF4	*	*	*	*
=103	=103	=103	=103	=103
.	.	(<8qa#X/	.	.
*ped	*	*	*	*
4BB'<	.	2.ggn)	.	.
(>4c#	.	.	.	.
*Xped	*	*	*	*
4B)	.	.	.	.
!!LO:LB:g=original
=104	=104	=104	=104	=104
.	.	(<8qan/	.	.
*ped	*	*	*	*
4BB'<	.	(>8ff#L)	.	.
.	.	8gg#X	.	.
(>4d#	.	8ff#	.	.
.	.	8ee	.	.
*Xped	*	*	*	*
4B)	.	8dd#	.	.
.	.	8cc#J)	.	.
=105	=105	=105	=105	=105
.	.	(<8qg#/	.	.
*ped	*	*	*	*
4E'>	.	(>2cc#)	.	.
(>4e	.	.	.	.
*Xped	*	*	*	*
4B)	.	4b)	.	.
=106	=106	=106	=106	=106
.	.	(<16qqd#/LL	.	.
.	.	16qqf#/JJ	.	.
(>8BBL	.	(>2.cc#)	.	pp
8F#	.	.	.	.
8A	.	.	.	.
8B	.	.	.	.
8A	.	.	.	.
8F#J)	.	.	.	.
=107	=107	=107	=107	=107
(>8BBL	.	2.b	.	.
8F#	.	.	.	.
8A	.	.	.	.
8B	.	.	.	.
8A	.	.	.	.
*Xped	*	*	*	*
8F#J)	.	.	.	.
=108	=108	=108	=108	=108
*ped	*	*	*	*
(>8BBL	.	8cc#L	.	<
8E	.	8dd#	.	.
8G#	.	8ee	.	.
8B	.	8ff#	.	.
8G#	.	8gg#	.	.
8EJ)	.	8aaJ)	.	[
=109	=109	=109	=109	=109
(>8BBL	.	(>2ccc#	.	.
8E	.	.	.	.
8G#	.	.	.	.
8e	.	.	.	.
8G#	.	4bb)	.	.
*Xped	*	*	*	*
8EJ)	.	.	.	.
!!LO:LB:g=original
=110	=110	=110	=110	=110
.	.	(<8qb/	.	.
*ped	*	*	*	*
(>8BBL	.	(>2.gg#)	.	.
8E	.	.	.	.
8G#	.	.	.	.
8B	.	.	.	.
8G#	.	.	.	.
*Xped	*	*	*	*
8EJ)	.	.	.	.
=111	=111	=111	=111	=111
.	.	(<8qa#X/	.	.
*ped	*	*	*	*
(>8BBL	.	2.ggn)	.	.
8E	.	.	.	.
8Gn	.	.	.	.
8c#	.	.	.	.
8G	.	.	.	.
*Xped	*	*	*	*
8EJ)	.	.	.	.
=112	=112	=112	=112	=112
*	*	*^	*	*
.	.	16qqff#/LL	N(8qan/	.	.
.	.	16qqgg#i/JJ	.	.	.
*ped	*	*	*	*	*
(>8BBL	.	4ff#N)	2.ryy	.	.
8F#	.	.	.	.	.
8A	.	8ee#XL	.	.	.
8d#	.	8ff#	.	.	.
8A	.	8aa	.	.	.
*Xped	*	*	*	*	*
8F#J)	.	8gg#J	.	.	.
*	*	*v	*v	*	*
=113	=113	=113	=113	=113
4e 4E	.	4een 4g#)	.	.
4r	.	4r	.	.
4r	.	4g#	.	.
=114	=114	=114	=114	=114
!	!	!	!	!LO:DY:rj
(<8FFF##XL	5	2.g# 2.d# 2.B#X 2.G#	.	ff
8GGG#	4	.	.	.
8BBB#X	2	.	.	.
8DD#	1	.	.	.
8FF##X	5	.	.	.
8GG#J)	4	.	.	.
=115	=115	=115	=115	=115
4G#	.	2g# 2d# 2B#X	.	.
4r	.	.	.	.
4CC#	.	4g# 4e 4c# 4G#	.	.
!!LO:LB:g=original
=116	=116	=116	=116	=116
(<8FFF##XL	.	2.g# 2.d# 2.B#X 2.G#	.	.
8GGG#	.	.	.	.
8BBB#X	.	.	.	.
8DD#	.	.	.	.
8FF##X	.	.	.	.
8GG#J)	.	.	.	.
=117	=117	=117	=117	=117
2G#	.	2g# 2d# 2B#X	.	.
.	.	.	.	.
4C#/	.	4g# 4e 4c# 4G#	.	.
=118	=118	=118	=118	=118
4D#	.	2.d# 2.Bni 2.G#<	.	.
(>8C##XL	.	.	.	.
8D#	.	.	.	.
8E	.	.	.	.
8D#J)	.	.	.	.
=119	=119	=119	=119	=119
(4.d#^>	.	2.b^>/ 2.g#/	.	.
8BL	.	.	.	.
8G#	.	.	.	.
8D#J)	.	.	.	.
=120	=120	=120	=120	=120
(<4.DD#	.	2.dd#^>\ 2.f##X\ 2.c#\	.	.
.	.	.	.	>
8CC#L	.	.	.	.
8BBB	.	.	.	.
8AAA#XJ	.	.	.	]
=121	=121	=121	=121	=121
4GGG#)	.	4b 4g# 4B	.	.
4r	.	4r	.	.
!	!	!LO:TX:a:t=P:brak zakoÄczenia ligatury:problem	!	!
4r	.	[<4B	.	.
!!LO:PB:g=original
=122	=122	=122	=122	=122
*	*	*^	*	*
!	!	!	!	!	!LO:DY:rj
4BBB'<	.	(>(>2.cc#)	[>2.f# [<2.d# 2.B_<]	.	p
*clefG2	*	*	*	*	*
(<4a	.	.	.	.	.
4B)	.	.	.	.	.
*clefF4	*	*	*	*	*
=123	=123	=123	=123	=123	=123
4BB'</	.	2.b)	2.f#] 2.d#] 2.B]	.	.
*clefG2	*	*	*	*	*
(<4a	.	.	.	.	.
4B)	.	.	.	.	.
.	.	.	.	.	.
*clefF4	*	*	*	*	*
*	*	*v	*v	*	*
=124	=124	=124	=124	=124
*ped	*	*	*	*
4E'>	.	8cc#L	.	.
.	.	8dd#	.	.
(>4g#	.	8ee	.	.
.	.	8ff#	.	.
4B)	.	8gg#	.	.
.	.	8aaJ)	.	.
=125	=125	=125	=125	=125
4G#'>	.	(>2ccc#	.	.
*clefG2	*	*	*	*
(</4b	.	.	.	.
*Xped	*	*	*	*
4e)	.	4bb)	.	.
*clefF4	*	*	*	*
=126	=126	=126	=126	=126
.	.	(<8qb/	.	.
*ped	*	*	*	*
4BB'<	.	2.gg#)	.	.
*clefG2	*	*	*	*
(</4b	.	.	.	.
*Xped	*	*	*	*
4B)	.	.	.	.
*clefF4	*	*	*	*
!!LO:LB:g=original
=127	=127	=127	=127	=127
.	.	(<8qa#X/	.	.
*ped	*	*	*	*
4BB'<	.	2.ggn)	.	.
(>4c#	.	.	.	.
*Xped	*	*	*	*
4B)	.	.	.	.
=128	=128	=128	=128	=128
.	.	(<8qan/	.	.
*ped	*	*	*	*
4BB'<	.	(>8ff#L)	.	.
.	.	8gg#i	.	.
(>4d#	.	8ff#	.	.
.	.	8ee	.	.
*Xped	*	*	*	*
4B)	.	8dd#	.	.
.	.	8cc#J)	.	.
=129	=129	=129	=129	=129
.	.	(<8qg#/	.	.
*ped	*	*	*	*
4E'>	.	(>2cc#)	.	.
(>4e	.	.	.	.
*Xped	*	*	*	*
4B)	.	4b)	.	.
=130	=130	=130	=130	=130
.	.	(<16qqd#/LL	.	.
.	.	16qqf#/JJ	.	.
*ped	*	*	*	*
(>8BBL	.	(>2.cc#)	.	pp
8F#	.	.	.	.
8A	.	.	.	.
8B	.	.	.	.
8A	.	.	.	.
*Xped	*	*	*	*
8F#J)	.	.	.	.
=131	=131	=131	=131	=131
*ped	*	*	*	*
(>8BBL	.	2.b	.	.
8F#	.	.	.	.
8A	.	.	.	.
8B	.	.	.	.
8A	.	.	.	.
*Xped	*	*	*	*
8F#J)	.	.	.	.
=132	=132	=132	=132	=132
(>8BBL	.	8cc#L	.	<
8E	.	8dd#	.	.
8G#	.	8ee	.	.
8B	.	8ff#	.	.
8G#	.	8gg#	.	.
8EJ)	.	8aaJ)	.	[
!!LO:LB:g=original
=133	=133	=133	=133	=133
*ped	*	*	*	*
(>8BBL	.	(>2ccc#	.	.
8E	.	.	.	.
8G#	.	.	.	.
8e	.	.	.	.
8G#	.	4bb)	.	.
*Xped	*	*	*	*
8EJ)	.	.	.	.
=134	=134	=134	=134	=134
.	.	(<8qb/	.	.
*ped	*	*	*	*
(>8BBL	.	2.gg#)	.	.
8E	.	.	.	.
8G#	.	.	.	.
8B	.	.	.	.
8G#	.	.	.	.
*Xped	*	*	*	*
8EJ)	.	.	.	.
=135	=135	=135	=135	=135
.	.	(<8qa#X/	.	.
*ped	*	*	*	*
(>8BBL	.	2.ggn)	.	.
8E	.	.	.	.
8Gn	.	.	.	.
8c#	.	.	.	.
8G	.	.	.	.
*Xped	*	*	*	*
8EJ)	.	.	.	.
=136	=136	=136	=136	=136
*	*	*^	*	*
.	.	16qqff#/LL	N(8qan/	.	.
.	.	16qqgg#i/JJ	.	.	.
*ped	*	*	*	*	*
(>8BBL	.	4ff#N)	2.ryy	.	.
8F#	.	.	.	.	.
8A	.	(>8ee#XL	.	.	.
8d#	.	8ff#	.	.	.
8A	.	8aa	.	.	.
*Xped	*	*	*	*	*
8F#J)	.	8gg#J	.	.	.
*	*	*v	*v	*	*
=137	=137	=137	=137	=137
4e 4E	.	4een\ 4g#\)	.	.
4r	.	4r	.	.
4r	.	4b\	.	.
*kcancel	*	*kcancel	*	*
!!LO:LB:g=original
=138||	=138||	=138||	=138||	=138||
*k[f#]	*	*k[f#]	*	*
*ped	*	*	*	*
4D#X'>	.	4b'>	.	p
*clefG2	*	*	*	*
(<4a 4f#	.	8b'>L	.	.
.	.	8b'>J	.	.
*Xped	*	*	*	*
4B)	.	4b'>	.	.
*clefF4	*	*	*	*
=139	=139	=139	=139	=139
*ped	*	*	*	*
4E'>	.	(>8a#XL	.	.
.	.	8b	.	.
*clefG2	*	*	*	*
(<4g 4e	.	8ee	.	.
.	.	8ggJ)	.	.
*Xped	*	*	*	*
4B)	.	4bb'>	.	.
*clefF4	*	*	*	*
=140	=140	=140	=140	=140
*	*	*8va	*	*
.	.	(<16qqccc/LL	.	.
.	.	16qqddd/JJ	.	.
*ped	*	*	*	*
4F#'>	.	8cccL)	.	p
.	.	8bb	.	.
*clefG2	*	*	*	*
(<4a 4d#X	.	8aa#X	.	.
.	.	8bb	.	.
*Xped	*	*	*	*
4B)	.	8fff# 8ddd#X	.	.
.	.	8bbbJ	.	.
*clefF4	*	*	*	*
=141	=141	=141	=141	=141
4BBB'<	.	4ggg 4eee	.	.
*clefG2	*	*	*	*
(<4g 4e	.	4r	.	.
4B)	.	4bb\	.	.
=142	=142	=142	=142	=142
*	*	*^	*	*
.	.	.	(<8qccc/	.	.
4A'<	.	4ryy	4bbb)	.	.
(<4f# 4e	.	2aaa	8aaaL	.	.
.	.	.	8fff#J	.	.
4c)	.	.	4ccc\	.	.
!!LO:LB:g=original
=143	=143	=143	=143	=143	=143
.	.	.	(<8qbb/	.	.
4B'<	.	4ryy	4aaa)	.	.
(<4b 4g	.	2ggg	8gggL	.	.
.	.	.	8eeeJ	.	.
4e)	.	.	4bb\	.	.
*clefF4	*	*	*	*	*
=144	=144	=144	=144	=144	=144
.	.	.	(<8qaa/	.	.
*ped	*	*	*	*	*
4BB'<	.	4ryy	4ggg)	.	.
*clefG2	*	*	*	*	*
(<4a 4f#	.	2fff#	8fff#L	.	.
.	.	.	8ddd#XJ	.	.
4B)	.	.	4aa/	.	.
*Xped	*	*	*	*	*
.	.	.	.	.	.
*	*	*v	*v	*	*
=145	=145	=145	=145	=145
4g 4e	.	8eeeL< 8gg	.	.
.	.	8ccc	.	.
4r	.	8bb	.	.
.	.	8ggJ	.	.
*	*	*X8va	*	*
4r	.	8ee\L	.	.
.	.	8ccJ	.	.
*clefF4	*	*	*	*
=146	=146	=146	=146	=146
*ped	*	*	*	*
4D#X'>	.	4b'>	.	.
*clefG2	*	*	*	*
(<4a 4f#	.	8b'>L	.	.
.	.	8b'>J	.	.
*Xped	*	*	*	*
4B)	.	4b'>	.	.
*clefF4	*	*	*	*
=147	=147	=147	=147	=147
*ped	*	*	*	*
4E'>	.	(>8a#XL	.	.
.	.	8b	.	.
*clefG2	*	*	*	*
(<4g 4e	.	8ee	.	.
.	.	8ggJ)	.	.
*Xped	*	*	*	*
4B)	.	4bb'>	.	.
*clefF4	*	*	*	*
!!LO:PB:g=original
=148	=148	=148	=148	=148
*	*	*8va	*	*
*ped	*	*	*	*
4F#'>	.	8cccM>L	.	<
.	.	8bb	.	.
*clefG2	*	*	*	*
(<4a 4d#X	.	8aa#X	.	.
.	.	8bb	.	.
*Xped	*	*	*	*
4B)	.	8fff# 8ddd#X	.	.
.	.	8bbbJ	.	[
=149	=149	=149	=149	=149
4b: 4fn: 4dni: 4G#X:	.	4ddddni 4fffn 4dddni	.	.
*	*	*X8va	*	*
4r	.	4r	.	.
4r	.	4ddd	.	.
*clefF4	*	*	*	*
=150	=150	=150	=150	=150
*ped	*	*	*	*
4A 4AA	.	8fffn^>L	.	f
.	.	8eee 8ccc	.	.
2fn 2e 2c	.	8ffn^<	.	.
.	.	8eee 8ccc	.	.
.	.	8fff	.	.
*Xped	*	*	*	*
.	.	8eeeJ 8ccc	.	.
=151	=151	=151	=151	=151
!	!	!LO:TX:b:i:t=cres-cen-do.:dur=9q:ext=ud:problem:text with extention lines	!	!
*ped	*	*	*	*
4A#X 4AA#X	.	8fff#XL	.	.
.	.	8eee 8ccc#X	.	.
2f#X 2e 2c#X	.	8ff#X^<	.	.
.	.	8eee 8ccc#	.	.
.	.	8fff#	.	.
*Xped	*	*	*	*
.	.	8eeeJ 8ccc#	.	.
=152	=152	=152	=152	=152
*ped	*	*	*	*
4B 4BB	.	8gggL	.	.
.	.	8eee 8bb	.	.
2g 2e 2B	.	8gg^<	.	.
.	.	8eee 8bb	.	.
.	.	8ggg	.	.
*Xped	*	*	*	*
.	.	8eeeJ 8bb	.	.
!!LO:LB:g=original
=153	=153	=153	=153	=153
*ped	*	*	*	*
4cn 4Cn	.	8gggL	.	.
.	.	8eee 8aa#X	.	.
2g 2e 2c	.	8gg	.	.
.	.	8eee 8aa#	.	.
.	.	8ggg	.	.
*Xped	*	*	*	*
.	.	8eeeJ 8aa#	.	.
=154	=154	=154	=154	=154
*ped	*	*	*	*
2e 2A#X 2G 2C#X	.	8gggL	.	ff
.	.	8gg	.	.
.	.	8ccc#X	.	.
.	.	8eee	.	.
4E 4EE	.	8ggg	.	.
.	.	8ggJ	.	.
=155	=155	=155	=155	=155
2G\ 2GG\	.	8eee^>L	.	.
.	.	8ee	.	.
.	.	8aa#X	.	.
.	.	8ccc#X	.	.
4A#X 4AA#X	.	8eee	.	.
.	.	8eeJ	.	.
=156	=156	=156	=156	=156
2c#X 2C#X	.	8ccc#X^>L	.	.
.	.	8cc#X	.	.
.	.	8gg	.	.
.	.	8aa#X	.	.
4e 4E	.	8ccc#	.	.
.	.	8cc#J	.	.
=157	=157	=157	=157	=157
4g^> 4G	.	8aa#X^>L	.	.
.	.	8a#X	.	.
4r	.	8ee	.	.
.	.	8gg	.	.
*Xped	*	*	*	*
4e 4A#X 4G 4Cn	.	8aa#	.	.
.	.	8a#J	.	.
!!LO:LB:g=original
=158	=158	=158	=158	=158
*ped	*	*	*	*
4e'>: 4B'>: 4G'>: 4BB'>:	.	4bb 4b	.	.
4r	.	8bb^<L	.	.
.	.	8gg	.	.
4r	.	8ff#	.	.
*Xped	*	*	*	*
.	.	8eeJ	.	.
=159	=159	=159	=159	=159
*ped	*	*	*	*
4d#X'>: 4A'>: 4F#'>: 4BB'>:	.	8dd#XL	.	.
.	.	8ccJ	.	.
4r	.	8b^</L	.	.
.	.	8a	.	.
4r	.	8g	.	.
*Xped	*	*	*	*
.	.	8f#J	.	.
=160	=160	=160	=160	=160
4G'> 4E'>	.	4e'<	.	.
4r	.	8aa#XL	.	.
.	.	8bb	.	.
4d#X'> 4A'> 4E'>	.	8ff# 8cc	.	.
.	.	8ggJ	.	.
=161	=161	=161	=161	=161
4e'> 4G'> 4E'>	.	8eeL 8b	.	.
.	.	8bb	.	.
4r	.	8aa#X	.	.
.	.	8bb	.	.
4d#X'> 4A'> 4E'>	.	8ff# 8cc	.	.
.	.	8ggJ	.	.
=162	=162	=162	=162	=162
4e'> 4G'> 4E'>	.	8eeL 8b	.	.
.	.	8bb	.	.
4r	.	8aa#X	.	.
.	.	8bb	.	.
4d#X'> 4A'> 4E'>	.	8ff# 8cc	.	.
.	.	8ggJ	.	.
!!LO:LB:g=original
=163	=163	=163	=163	=163
4e'> 4G'> 4E'>	.	8eeL 8b	.	.
.	.	8bb	.	.
4r	.	8aa#X	.	.
.	.	8bb	.	.
4d#X'> 4A'> 4E'>	.	8ff# 8cc	.	.
.	.	8ggJ	.	.
=164	=164	=164	=164	=164
*ped	*	*	*	*
4e 4G 4E	.	4ee 4b	.	.
4r	.	(>8eL<	.	.
.	.	8g	.	.
4r	.	8b	.	.
.	.	8eeJ)	.	.
=165	=165	=165	=165	=165
*	*	*8va	*	*
4EE	.	(>8ggL<	.	.
.	.	8bb	.	.
4r	.	8eee	.	.
.	.	8eeee	.	.
4r	.	8bbb	.	.
.	.	8gggJ)	.	.
=166	=166	=166	=166	=166
2.rF	.	(>8eeeL	.	.
.	.	8bb	.	.
*	*	*X8va	*	*
.	.	8gg	.	.
!	!	!LO:TX:b:i:t=dim-in-nu-en-do.:dur=11e:ext=ud:problem:text with extention lines	!	!
.	.	8ee	.	.
.	.	8b	.	.
.	.	8gJ)	.	.
=167	=167	=167	=167	=167
2.rBB	.	(>8eL	.	.
.	.	8B	.	.
.	.	8G<	.	.
.	.	8E<	.	.
.	.	8BB<	.	.
.	.	8GG<J)	.	.
!!LO:LB:g=original
=168	=168	=168	=168	=168
4EE 4EEE	.	4r	.	.
*Xped	*	*	*	*
4r	.	4r	.	.
4r	.	4r	.	.
=169	=169	=169	=169	=169
4B\ 4F#\ 4D#X\ 4BB\	.	4bb 4ff# 4dd#X 4b	.	f
4r	.	4r	.	<
4r	.	4r	.	.
=170	=170	=170	=170	=170
4E/ 4BB/ 4GG/ 4EE/	.	4eee 4bb 4gg 4ee	.	.
4r	.	4r	.	.
4r	.	4r	.	.
=171	=171	=171	=171	=171
*	*	*8va	*	*
4BB/ 4FF#/ 4DD#X/ 4BBB/	.	4bbb 4fff# 4ddd#X 4bb	.	.
*	*	*X8va	*	*
4r	.	4r	.	.
4r	.	4r	.	.
=172	=172	=172	=172	=172
*	*	*8va	*	*
4EE/ 4EEE/	.	4eeee 4bbb 4ggg 4eee	.	.
*	*	*X8va	*	*
.	.	.	.	[
4r	.	4r	.	.
!LO:TX:b:i:t=Fine.	!	!	!	!
4r	.	4r	.	.
==	==	==	==	==
*-	*-	*-	*-	*-
!!!system-decoration: {(s1,s2)}
!!title: @{OTL}; @{OPS} @{ONM} publisher: @{PPR}
!!!RDF**kern: i = editorial accidental, bracket
!!!RDF**kern: N = linked
!!!RDF**kern: > = above
!!!RDF**kern: < = below
!!!RDF**dynam: < = "cres."
!!!ENC:Mateusz Mrugas
!!!END:2020-05-30
!!!EED: J«drzej Mr—z
!!!EST: revision finished 2020-06-06
